images/icons/instagram-icon.svg

<svg width="54" height="54" viewBox="0 0 54 54" fill="none" xmlns="http://www.w3.org/2000/svg">
<path d="M53.0956 16.2228C53.0661 14.0138 52.6526 11.8267 51.8735 9.75946C51.1978 8.01574 50.1659 6.43212 48.8436 5.1098C47.5212 3.78747 45.9376 2.75552 44.1939 2.07988C42.1532 1.31383 39.9973 0.89962 37.8181 0.854875C35.0122 0.729458 34.1226 0.694458 27.0001 0.694458C19.8776 0.694458 18.9647 0.694458 16.1793 0.854875C14.001 0.899949 11.8462 1.31416 9.80639 2.07988C8.0624 2.75505 6.47854 3.78684 5.15616 5.10922C3.83377 6.4316 2.80199 8.01546 2.12681 9.75946C1.35923 11.7986 0.94592 13.9539 0.904727 16.1324C0.779311 18.9411 0.741394 19.8307 0.741394 26.9532C0.741394 34.0757 0.741394 34.9857 0.904727 37.774C0.948477 39.9557 1.35973 42.1082 2.12681 44.1528C2.80312 45.8963 3.83567 47.4795 5.1585 48.8013C6.48132 50.1231 8.06533 51.1545 9.80931 51.8295C11.8435 52.6263 13.9987 53.0702 16.1822 53.142C18.991 53.2674 19.8806 53.3053 27.0031 53.3053C34.1256 53.3053 35.0385 53.3053 37.8239 53.142C40.0031 53.099 42.1591 52.6858 44.1997 51.9199C45.943 51.2434 47.5262 50.2112 48.8484 48.889C50.1706 47.5668 51.2029 45.9836 51.8793 44.2403C52.6464 42.1986 53.0576 40.0461 53.1014 37.8615C53.2268 35.0557 53.2647 34.1661 53.2647 27.0407C53.2589 19.9182 53.2589 19.014 53.0956 16.2228ZM26.9826 40.4224C19.5335 40.4224 13.4989 34.3878 13.4989 26.9386C13.4989 19.4895 19.5335 13.4549 26.9826 13.4549C30.5588 13.4549 33.9884 14.8755 36.5171 17.4042C39.0458 19.9329 40.4664 23.3625 40.4664 26.9386C40.4664 30.5147 39.0458 33.9444 36.5171 36.4731C33.9884 39.0018 30.5588 40.4224 26.9826 40.4224ZM41.0031 16.1003C40.5901 16.1007 40.181 16.0196 39.7994 15.8617C39.4177 15.7039 39.071 15.4723 38.7789 15.1802C38.4869 14.8882 38.2553 14.5414 38.0974 14.1598C37.9396 13.7782 37.8585 13.3691 37.8589 12.9561C37.8589 12.5434 37.9402 12.1348 38.0981 11.7535C38.2561 11.3722 38.4875 11.0257 38.7794 10.7339C39.0712 10.4421 39.4176 10.2106 39.7989 10.0526C40.1802 9.89471 40.5889 9.81342 41.0016 9.81342C41.4143 9.81342 41.823 9.89471 42.2043 10.0526C42.5856 10.2106 42.932 10.4421 43.2238 10.7339C43.5157 11.0257 43.7472 11.3722 43.9051 11.7535C44.063 12.1348 44.1443 12.5434 44.1443 12.9561C44.1443 14.6945 42.7385 16.1003 41.0031 16.1003Z" fill="#CCCCCC"/>
<path d="M26.9829 35.6974C31.8202 35.6974 35.7417 31.7759 35.7417 26.9386C35.7417 22.1013 31.8202 18.1799 26.9829 18.1799C22.1456 18.1799 18.2242 22.1013 18.2242 26.9386C18.2242 31.7759 22.1456 35.6974 26.9829 35.6974Z" fill="#CCCCCC"/>
</svg>

<svg xmlns="http://www.w3.org/2000/svg" width="54" height="54" fill="none"><path fill="#CCC" d="M53.096 16.223a19.049 19.049 0 0 0-1.222-6.464 13.447 13.447 0 0 0-7.68-7.68A19.268 19.268 0 0 0 37.818.856C35.012.729 34.123.695 27 .695c-7.122 0-8.035 0-10.82.16C14 .9 11.845 1.315 9.805 2.08a13.437 13.437 0 0 0-7.68 7.68 19.116 19.116 0 0 0-1.221 6.372C.779 18.942.74 19.831.74 26.953c0 7.123 0 8.033.164 10.821a19.237 19.237 0 0 0 1.222 6.379 13.445 13.445 0 0 0 7.682 7.677c2.035.796 4.19 1.24 6.373 1.312 2.809.125 3.699.163 10.821.163 7.123 0 8.035 0 10.82-.163A19.223 19.223 0 0 0 44.2 51.92a13.461 13.461 0 0 0 7.68-7.68 19.21 19.21 0 0 0 1.221-6.379c.126-2.805.164-3.695.164-10.82-.006-7.123-.006-8.027-.17-10.818Zm-26.113 24.2c-7.45 0-13.484-6.035-13.484-13.484 0-7.45 6.034-13.484 13.484-13.484a13.484 13.484 0 1 1 0 26.967ZM41.003 16.1a3.14 3.14 0 0 1-2.905-4.347 3.142 3.142 0 0 1 6.046 1.203 3.141 3.141 0 0 1-3.14 3.144Z"/><path fill="#CCC" d="M26.983 35.697a8.759 8.759 0 1 0 0-17.517 8.759 8.759 0 0 0 0 17.517Z"/></svg>
